svg/fluentui-system-icons/ic_fluent_mail_settings_20_filled.svg

<svg width="20" height="20" viewBox="0 0 20 20" fill="none" xmlns="http://www.w3.org/2000/svg">
<path d="M14.5 11C15.8297 11 17.0491 10.5282 18.0001 9.74277V14.5C18.0001 15.8807 16.8808 17 15.5001 17H4.50008C3.11937 17 2 15.8807 2 14.5V7.373L9.74657 11.931C9.90304 12.023 10.0971 12.023 10.2536 11.931L12.4838 10.6187C13.1081 10.8648 13.7883 11 14.5 11ZM4.50008 4H9.20703C9.07217 4.47683 9 4.97999 9 5.5C9 7.4057 9.96922 9.08503 11.4416 10.0719L10.0001 10.9199L2.01526 6.22293C2.15312 4.9726 3.21302 4 4.50008 4ZM10.6351 4.91993C11.723 4.64201 12.369 3.52311 12.0657 2.44195L11.9095 1.88518C12.1636 1.68988 12.439 1.52258 12.7314 1.3877L13.0688 1.74565C13.8577 2.58277 15.1885 2.58347 15.9783 1.74719L16.303 1.4034C16.6008 1.54392 16.8806 1.71819 17.1378 1.92148L17.0116 2.34376C16.6823 3.44591 17.3483 4.59803 18.4677 4.86271L18.8167 4.94523C18.8383 5.12698 18.8494 5.31207 18.8494 5.49986C18.8494 5.65585 18.8417 5.80999 18.8268 5.9619L18.3662 6.07955C17.2783 6.35746 16.6323 7.47637 16.9356 8.55752L17.0917 9.11417C16.8376 9.30951 16.5623 9.47685 16.2698 9.61178L15.9325 9.25382C15.1436 8.4167 13.8128 8.416 13.023 9.25229L12.698 9.59641C12.4002 9.45593 12.1205 9.28173 11.8633 9.07852L11.9897 8.65571C12.319 7.55356 11.653 6.40144 10.5336 6.13676L10.184 6.05411C10.1625 5.87249 10.1514 5.68751 10.1514 5.49986C10.1514 5.34382 10.159 5.18964 10.174 5.0377L10.6351 4.91993ZM15.5004 5.49986C15.5004 4.94757 15.0527 4.49986 14.5004 4.49986C13.9481 4.49986 13.5004 4.94757 13.5004 5.49986C13.5004 6.05214 13.9481 6.49986 14.5004 6.49986C15.0527 6.49986 15.5004 6.05214 15.5004 5.49986Z" fill="#212121"/>
</svg>

<svg xmlns="http://www.w3.org/2000/svg" width="20" height="20"><path d="M14.5 11c1.33 0 2.55-.472 3.5-1.257V14.5a2.5 2.5 0 0 1-2.5 2.5h-11A2.5 2.5 0 0 1 2 14.5V7.373l7.747 4.558a.5.5 0 0 0 .507 0l2.23-1.312A5.486 5.486 0 0 0 14.5 11Zm-10-7h4.707a5.496 5.496 0 0 0 2.235 6.072L10 10.92 2.015 6.223A2.5 2.5 0 0 1 4.5 4Zm6.135.92a2 2 0 0 0 1.43-2.478l-.155-.557c.254-.195.529-.362.821-.497l.338.358a2 2 0 0 0 2.91.001l.324-.344c.298.14.578.315.835.518l-.126.423a2 2 0 0 0 1.456 2.519l.349.082a4.698 4.698 0 0 1 .01 1.017l-.46.118a2 2 0 0 0-1.431 2.478l.156.556c-.254.196-.53.363-.822.498l-.338-.358a2 2 0 0 0-2.909-.002l-.325.344a4.32 4.32 0 0 1-.835-.517l.127-.423a2 2 0 0 0-1.456-2.52l-.35-.082a4.714 4.714 0 0 1-.01-1.016l.461-.118Zm4.865.58a1 1 0 1 0-2 0 1 1 0 0 0 2 0Z"/></svg>
